img/bkpm/bkpm-logo.svg

<svg width="62" height="48" viewBox="0 0 62 48" fill="none" xmlns="http://www.w3.org/2000/svg"><path fill-rule="evenodd" clip-rule="evenodd" d="M61.5215 17.5304C56.1031 17.8295 51.7399 18.748 48.988 20.6201C46.0952 22.6979 44.3006 25.0705 43.9309 27.8308C43.683 28.6802 43.6308 36.7076 43.6328 41.3918L30.9991 48L18.2002 41.6367L18.3677 29.2369C18.2787 22.8473 20.0492 16.681 24.0755 10.7921C26.8707 7.49023 29.5025 3.49669 34.0227 0.875278C34.9778 0.134369 36.6395 -0.158081 39.141 0.0823669C41.451 0.301025 43.2303 0.838383 44.6573 1.59242C37.5402 4.46963 31.867 8.61669 28.2083 14.5318C26.0158 18.2973 24.5824 22.2775 24.2996 26.5806L24.1473 38.7724L27.9907 40.95L28.2043 28.444C28.661 22.5375 30.6446 17.9486 33.7813 14.4734C36.0458 11.7995 39.6673 9.17163 43.9373 7.11086C45.7556 6.24861 47.9963 5.99281 50.25 6.52174C52.4511 7.05687 54.3674 7.80868 56.0293 8.75314C49.4624 10.0056 43.5545 12.4777 40.6137 15.2641C37.0852 18.7762 34.5144 22.3881 34.1186 26.2252C33.8857 27.8286 33.8551 35.8756 33.8183 40.7831L37.8664 38.8481L37.8512 27.9628C38.2883 24.6306 39.8893 21.7812 42.2341 19.2356C43.5764 17.7817 47.5722 15.3247 50.8762 14.196C54.8437 12.5926 58.8527 14.7854 61.5215 17.5304Z" fill="#49A85E"/><path fill-rule="evenodd" clip-rule="evenodd" d="M0.478516 17.5304C5.89464 17.8295 10.2603 18.748 13.012 20.6201C15.905 22.6979 17.6996 25.0705 18.0694 27.8308C18.3172 28.6802 18.2019 36.9523 18.1997 41.6367L30.9986 48L43.6323 41.3918V29.2369C43.7216 22.8473 41.9487 16.681 37.9245 10.7921C35.1295 7.49023 32.4952 3.49669 27.9775 0.875278C27.0224 0.134369 25.3605 -0.158081 22.8591 0.0823669C20.5491 0.301025 18.7698 0.838383 17.3427 1.59242C24.4579 4.46963 30.1332 8.61669 33.7917 14.5318C35.9844 18.2973 37.4176 22.2775 37.7006 26.5806L37.8659 38.8481L33.8178 40.7831L33.7959 28.444C33.3392 22.5375 31.3556 17.9486 28.2187 14.4734C25.9544 11.7995 22.3328 9.17163 18.0628 7.11086C16.2444 6.24861 14.0016 5.99281 11.7503 6.52174C9.54896 7.05687 7.63275 7.80868 5.97089 8.75314C12.5376 10.0056 18.4457 12.4777 21.3864 15.2641C24.9148 18.7762 27.4858 22.3881 27.8816 26.2252C28.1143 27.8286 27.9534 36.0402 27.9902 40.95L24.1468 38.7724V27.9628C23.7118 24.6306 22.1109 21.7812 19.7659 19.2356C18.4238 17.7817 14.4279 15.3247 11.1239 14.196C7.15642 12.5926 3.14734 14.7854 0.478516 17.5304Z" fill="#263D93"/></svg>

<svg width="62" height="48" fill="none" xmlns="http://www.w3.org/2000/svg"><path fill-rule="evenodd" clip-rule="evenodd" d="M61.522 17.53c-5.419.3-9.782 1.218-12.534 3.09-2.893 2.078-4.687 4.45-5.057 7.21-.248.85-.3 8.878-.298 13.562L30.999 48 18.2 41.637l.168-12.4c-.09-6.39 1.681-12.556 5.708-18.445C26.87 7.49 29.503 3.497 34.023.875c.955-.74 2.616-1.033 5.118-.793 2.31.219 4.09.756 5.516 1.51-7.117 2.878-12.79 7.025-16.449 12.94-2.192 3.765-3.626 7.745-3.908 12.049l-.153 12.191 3.844 2.178.213-12.506c.457-5.906 2.44-10.495 5.577-13.97 2.265-2.675 5.886-5.302 10.156-7.363 1.819-.862 4.06-1.118 6.313-.59 2.201.536 4.117 1.288 5.78 2.232-6.568 1.253-12.476 3.725-15.416 6.511-3.529 3.512-6.1 7.124-6.495 10.961-.233 1.604-.264 9.65-.3 14.558l4.047-1.935-.015-10.885c.437-3.332 2.038-6.182 4.383-8.727 1.342-1.454 5.338-3.911 8.642-5.04 3.968-1.603 7.977.59 10.646 3.334Z" fill="#49A85E"/><path fill-rule="evenodd" clip-rule="evenodd" d="M.479 17.53c5.416.3 9.781 1.218 12.533 3.09 2.893 2.078 4.688 4.45 5.057 7.21.248.85.133 9.122.13 13.807L31 48l12.633-6.608V29.237c.09-6.39-1.683-12.556-5.707-18.445-2.795-3.302-5.43-7.295-9.947-9.917-.956-.74-2.618-1.033-5.119-.793-2.31.219-4.09.756-5.516 1.51 7.115 2.878 12.79 7.025 16.449 12.94 2.192 3.765 3.626 7.745 3.909 12.049l.165 12.267-4.048 1.935-.022-12.339c-.457-5.906-2.44-10.495-5.577-13.97-2.265-2.675-5.886-5.302-10.156-7.363-1.819-.862-4.061-1.118-6.313-.59-2.201.536-4.117 1.288-5.78 2.232 6.568 1.253 12.476 3.725 15.416 6.511 3.529 3.512 6.1 7.124 6.496 10.961.232 1.604.071 9.815.108 14.725l-3.843-2.178v-10.81c-.435-3.331-2.036-6.18-4.381-8.726-1.342-1.454-5.338-3.911-8.642-5.04-3.968-1.603-7.977.59-10.645 3.334Z" fill="#263D93"/></svg>
